static/image/Strategy.svg

<svg height="442px" version="1.1" viewBox="-0.5 -0.5 682 442" width="682px" xmlns="http://www.w3.org/2000/svg" xmlns:xlink="http://www.w3.org/1999/xlink"><defs/><rect class="fill-stroke" height="60" width="200" x="480" y="155"/><foreignObject class="leftdiv" ><div class="flexcenter flexzero" style="width:198px;padding-top:185px;margin-left:481px" xmlns="http://www.w3.org/1999/xhtml"><div class="centerdiv"><div class="normaldiv">Concrete<br/>Strategies<br/></div></div></div></foreignObject><rect class="fill-stroke" height="30" width="200" x="480" y="215"/><foreignObject class="leftdiv" ><div class="flexstart flexzero" style="width:198px;padding-top:230px;margin-left:482px" xmlns="http://www.w3.org/1999/xhtml"><div class="leftdiv"><div class="normaldiv"><div style=""><br/></div></div></div></div></foreignObject><rect class="fill-stroke" height="30" width="200" x="480" y="245"/><foreignObject class="leftdiv" ><div class="flexstart flexzero" style="width:198px;padding-top:260px;margin-left:482px" xmlns="http://www.w3.org/1999/xhtml"><div class="leftdiv"><div class="normaldiv"><div style="">+ execute(data)</div></div></div></div></foreignObject><rect height="30" class="none-stroke" width="280" x="130" y="0"/><foreignObject class="leftdiv" ><div class="flexcenter flexzero" style="width:278px;padding-top:15px;margin-left:131px" xmlns="http://www.w3.org/1999/xhtml"><div class="centerdiv"><div class="normaldiv">Context<br/></div></div></div></foreignObject><rect height="30" class="none-stroke" width="280" x="130" y="30"/><foreignObject class="leftdiv" ><div class="flexstart flexzero" style="width:278px;padding-top:45px;margin-left:132px" xmlns="http://www.w3.org/1999/xhtml"><div class="leftdiv"><div class="normaldiv"><div style="">- strategy</div></div></div></div></foreignObject><rect height="30" class="none-stroke" width="280" x="130" y="90"/><foreignObject class="leftdiv" ><div class="flexstart flexzero" style="width:278px;padding-top:105px;margin-left:132px" xmlns="http://www.w3.org/1999/xhtml"><div class="leftdiv"><div class="normaldiv"><div style="">+ doSomething()</div></div></div></div></foreignObject><path d="M 105 155 L 105 105 L 130 105" class="none-stroke" stroke-dasharray="6 6" stroke-miterlimit="10" stroke-width="2"/><path d="M 0 155 L 200 155 L 210 165 L 210 205 L 0 205 L 0 155 Z" class="fill-stroke" stroke-miterlimit="10"/><path d="M 200 155 L 200 165 L 210 165 Z" fill="#000000" fill-opacity="0.05" stroke="none"/><path d="M 200 155 L 200 165 L 210 165" class="none-stroke" stroke-miterlimit="10"/><foreignObject class="leftdiv" ><div class="flexstart flexzero" style="width:208px;padding-top:180px;margin-left:2px" xmlns="http://www.w3.org/1999/xhtml"><div class="leftdiv"><div class="normaldiv">this.state = state<br/>state.setContext(this)</div></div></div></foreignObject><path d="M 270 230 L 270 124.47" class="none-stroke" stroke-miterlimit="10" stroke-width="2"/><path d="M 277 136.24 L 270 122.24 L 263 136.24" class="none-stroke" stroke-miterlimit="10" stroke-width="2"/><path d="M 330 250 L 465.53 250" class="none-stroke" stroke-dasharray="6 6" stroke-miterlimit="10" stroke-width="2"/><path d="M 453.76 257 L 467.76 250 L 453.76 243" class="none-stroke" stroke-miterlimit="10" stroke-width="2"/><rect height="40" class="none-stroke" width="120" x="210" y="230"/><foreignObject class="leftdiv" ><div class="flexcenter flexzero" style="width:118px;padding-top:250px;margin-left:211px" xmlns="http://www.w3.org/1999/xhtml"><div class="centerdiv"><div class="normaldiv">Client<br/></div></div></div></foreignObject><path d="M 485.53 45 L 425.97 45" class="none-stroke" stroke-miterlimit="10" stroke-width="2"/><path d="M 473.76 52 L 487.76 45 L 473.76 38" class="none-stroke" stroke-miterlimit="10" stroke-width="2"/><path d="M 411.97 45 L 418.97 40.88 L 425.97 45 L 418.97 49.12 Z" class="none-stroke" stroke-miterlimit="10" stroke-width="2"/><rect height="60" class="none-stroke" width="160" x="490" y="0"/><foreignObject class="leftdiv" ><div class="flexcenter flexzero" style="width:158px;padding-top:30px;margin-left:491px" xmlns="http://www.w3.org/1999/xhtml"><div class="centerdiv"><div class="normaldiv">&lt;&lt;interface&gt;&gt;<br/>Strategy<br/></div></div></div></foreignObject><path d="M 270 300 L 270 270" class="none-stroke" stroke-dasharray="6 6" stroke-miterlimit="10" stroke-width="2"/><path d="M 137.5 300 L 392.5 300 L 402.5 310 L 402.5 440 L 137.5 440 L 137.5 300 Z" class="fill-stroke" stroke-miterlimit="10"/><path d="M 392.5 300 L 392.5 310 L 402.5 310 Z" fill="#000000" fill-opacity="0.05" stroke="none"/><path d="M 392.5 300 L 392.5 310 L 402.5 310" class="none-stroke" stroke-miterlimit="10"/><foreignObject class="leftdiv" ><div class="flexstart flexzero" style="width:263px;padding-top:370px;margin-left:140px" xmlns="http://www.w3.org/1999/xhtml"><div class="leftdiv"><div class="normaldiv">str = new SomeStrategy()<br/>context.setStrategy(str)<br/>context.doSomething()<br/>// ...<br/>other = new OtherStrategy()<br/>context.setStrategy(other)<br/>context.doSomething()</div></div></div></foreignObject><path d="M 570 145 L 570 106.24" class="none-stroke" stroke-dasharray="6 6" stroke-miterlimit="10" stroke-width="2"/><path d="M 570 92.24 L 577 106.24 L 563 106.24 Z" class="none-stroke" stroke-miterlimit="10" stroke-width="2"/><rect class="fill-stroke" height="60" width="200" x="470" y="145"/><foreignObject class="leftdiv" ><div class="flexcenter flexzero" style="width:198px;padding-top:175px;margin-left:471px" xmlns="http://www.w3.org/1999/xhtml"><div class="centerdiv"><div class="normaldiv">Concrete<br/>Strategies<br/></div></div></div></foreignObject><rect class="fill-stroke" height="30" width="200" x="470" y="205"/><foreignObject class="leftdiv" ><div class="flexstart flexzero" style="width:198px;padding-top:220px;margin-left:472px" xmlns="http://www.w3.org/1999/xhtml"><div class="leftdiv"><div class="normaldiv"><div style=""><br/></div></div></div></div></foreignObject><rect height="30" class="none-stroke" width="160" x="490" y="60"/><foreignObject class="leftdiv" ><div class="flexstart flexzero" style="width:158px;padding-top:75px;margin-left:492px" xmlns="http://www.w3.org/1999/xhtml"><div class="leftdiv"><div class="normaldiv"><div style="">+ execute(data)</div></div></div></div></foreignObject><rect class="fill-stroke" height="30" width="200" x="470" y="235"/><foreignObject class="leftdiv" ><div class="flexstart flexzero" style="width:198px;padding-top:250px;margin-left:472px" xmlns="http://www.w3.org/1999/xhtml"><div class="leftdiv"><div class="normaldiv"><div style="">+ execute(data)</div></div></div></div></foreignObject><rect height="30" class="none-stroke" width="280" x="130" y="60"/><foreignObject class="leftdiv" ><div class="flexstart flexzero" style="width:278px;padding-top:75px;margin-left:132px" xmlns="http://www.w3.org/1999/xhtml"><div class="leftdiv"><div class="normaldiv"><div style="">+ setStrategy(strategy)</div></div></div></div></foreignObject></svg>

<?xml version="1.0" encoding="utf-8"?>
<!DOCTYPE svg PUBLIC "-//W3C//DTD SVG 1.1//EN" "http://www.w3.org/Graphics/SVG/1.1/DTD/svg11.dtd">
<svg height="442" viewBox="-0.5 -0.5 682 442" width="682" xmlns="http://www.w3.org/2000/svg" xmlns:xlink="http://www.w3.org/1999/xlink">
 <defs>
  <style>
   @import url(https://fonts.googleapis.com/css?family=Fira+Code);
  </style>
  <style>
   svg {
           color: gray; 
           font-size: 14px; 
           font-family: "Fira Code";
       } 
       .none-stroke {
           fill: none; 
           stroke: gray;
       } 
       .fill-stroke {
           fill: #333; 
           stroke: gray;
       } 
       foreignObject {
           width: 100%; 
           height: 100%;
       } 
       .leftdiv {
           overflow: visible; 
           text-align: left;
       } 
       .centerdiv {
           box-sizing:border-box; 
           text-align:center
       } 
       .normaldiv {
           display:inline-block; 
           line-height:1.2; 
           white-space:normal; 
           overflow-wrap:normal
       } 
       .flexcenter {
           display:flex; 
           align-items:unsafe center; 
           justify-content:unsafe center;
       }
       .flexstart {
           display:flex; 
           align-items:unsafe center; 
           justify-content:unsafe flex-start;
       } 
       .flexzero {height: 1px;}
  </style>
 </defs>
 <path d="M480 155h200v60H480z" fill="#333" pointer-events="all" stroke="gray"/>
 <foreignObject height="100%" pointer-events="none" requiredFeatures="http://www.w3.org/TR/SVG11/feature#Extensibility" style="overflow:visible;text-align:left" width="100%">
  <div style="display:flex;align-items:unsafe center;justify-content:unsafe center;width:198px;height:1px;padding-top:185px;margin-left:481px" xmlns="http://www.w3.org/1999/xhtml">
   <div data-drawio-colors="color: rgb(0, 0, 0);" style="box-sizing:border-box;font-size:0;text-align:center">
    <div style="display:inline-block;font-size:12px;font-family:Helvetica;color:#000;line-height:1.2;pointer-events:all;white-space:normal;overflow-wrap:normal">
     <font color="gray" face="Fira Code">
      <span style="font-size:15px">
       Concrete
       <br/>
       Strategies
       <br/>
      </span>
     </font>
    </div>
   </div>
  </div>
 </foreignObject>
 <path d="M480 215h200v30H480z" fill="#333" pointer-events="all" stroke="gray"/>
 <foreignObject height="100%" pointer-events="none" requiredFeatures="http://www.w3.org/TR/SVG11/feature#Extensibility" style="overflow:visible;text-align:left" width="100%">
  <div style="display:flex;align-items:unsafe center;justify-content:unsafe flex-start;width:198px;height:1px;padding-top:230px;margin-left:482px" xmlns="http://www.w3.org/1999/xhtml">
   <div data-drawio-colors="color: rgb(0, 0, 0);" style="box-sizing:border-box;font-size:0;text-align:left">
    <div style="display:inline-block;font-size:12px;font-family:Helvetica;color:#000;line-height:1.2;pointer-events:all;white-space:normal;overflow-wrap:normal">
     <div>
      <br/>
     </div>
    </div>
   </div>
  </div>
 </foreignObject>
 <path d="M480 245h200v30H480z" fill="#333" pointer-events="all" stroke="gray"/>
 <foreignObject height="100%" pointer-events="none" requiredFeatures="http://www.w3.org/TR/SVG11/feature#Extensibility" style="overflow:visible;text-align:left" width="100%">
  <div style="display:flex;align-items:unsafe center;justify-content:unsafe flex-start;width:198px;height:1px;padding-top:260px;margin-left:482px" xmlns="http://www.w3.org/1999/xhtml">
   <div data-drawio-colors="color: rgb(0, 0, 0);" style="box-sizing:border-box;font-size:0;text-align:left">
    <div style="display:inline-block;font-size:12px;font-family:Helvetica;color:#000;line-height:1.2;pointer-events:all;white-space:normal;overflow-wrap:normal">
     <div>
      <font color="gray" face="Fira Code">
       <span style="font-size:15px">
        + execute(data)
       </span>
      </font>
     </div>
    </div>
   </div>
  </div>
 </foreignObject>
 <path d="M130 0h280v30H130z" fill="none" pointer-events="all" stroke="gray"/>
 <foreignObject height="100%" pointer-events="none" requiredFeatures="http://www.w3.org/TR/SVG11/feature#Extensibility" style="overflow:visible;text-align:left" width="100%">
  <div style="display:flex;align-items:unsafe center;justify-content:unsafe center;width:278px;height:1px;padding-top:15px;margin-left:131px" xmlns="http://www.w3.org/1999/xhtml">
   <div data-drawio-colors="color: rgb(0, 0, 0);" style="box-sizing:border-box;font-size:0;text-align:center">
    <div style="display:inline-block;font-size:12px;font-family:Helvetica;color:#000;line-height:1.2;pointer-events:all;white-space:normal;overflow-wrap:normal">
     <font color="gray" face="Fira Code">
      <span style="font-size:15px">
       Context
       <br/>
      </span>
     </font>
    </div>
   </div>
  </div>
 </foreignObject>
 <path d="M130 30h280v30H130z" fill="none" pointer-events="all" stroke="gray"/>
 <foreignObject height="100%" pointer-events="none" requiredFeatures="http://www.w3.org/TR/SVG11/feature#Extensibility" style="overflow:visible;text-align:left" width="100%">
  <div style="display:flex;align-items:unsafe center;justify-content:unsafe flex-start;width:278px;height:1px;padding-top:45px;margin-left:132px" xmlns="http://www.w3.org/1999/xhtml">
   <div data-drawio-colors="color: rgb(0, 0, 0);" style="box-sizing:border-box;font-size:0;text-align:left">
    <div style="display:inline-block;font-size:12px;font-family:Helvetica;color:#000;line-height:1.2;pointer-events:all;white-space:normal;overflow-wrap:normal">
     <div>
      <font color="gray" face="Fira Code">
       <span style="font-size:15px">
        - strategy
       </span>
      </font>
     </div>
    </div>
   </div>
  </div>
 </foreignObject>
 <path d="M130 90h280v30H130z" fill="none" pointer-events="all" stroke="gray"/>
 <foreignObject height="100%" pointer-events="none" requiredFeatures="http://www.w3.org/TR/SVG11/feature#Extensibility" style="overflow:visible;text-align:left" width="100%">
  <div style="display:flex;align-items:unsafe center;justify-content:unsafe flex-start;width:278px;height:1px;padding-top:105px;margin-left:132px" xmlns="http://www.w3.org/1999/xhtml">
   <div data-drawio-colors="color: rgb(0, 0, 0);" style="box-sizing:border-box;font-size:0;text-align:left">
    <div style="display:inline-block;font-size:12px;font-family:Helvetica;color:#000;line-height:1.2;pointer-events:all;white-space:normal;overflow-wrap:normal">
     <div>
      <font color="gray" face="Fira Code">
       <span style="font-size:15px">
        + doSomething()
       </span>
      </font>
     </div>
    </div>
   </div>
  </div>
 </foreignObject>
 <path d="M105 155v-50h25" fill="none" pointer-events="stroke" stroke="gray" stroke-dasharray="6 6" stroke-miterlimit="10" stroke-width="2"/>
 <path d="M0 155h200l10 10v40H0v-50Z" fill="#333" pointer-events="all" stroke="gray" stroke-miterlimit="10"/>
 <path d="M200 155v10h10Z" fill-opacity=".05" pointer-events="all"/>
 <path d="M200 155v10h10" fill="none" pointer-events="all" stroke="gray" stroke-miterlimit="10"/>
 <foreignObject height="100%" pointer-events="none" requiredFeatures="http://www.w3.org/TR/SVG11/feature#Extensibility" style="overflow:visible;text-align:left" width="100%">
  <div style="display:flex;align-items:unsafe center;justify-content:unsafe flex-start;width:208px;height:1px;padding-top:180px;margin-left:2px" xmlns="http://www.w3.org/1999/xhtml">
   <div data-drawio-colors="color: #808080;" style="box-sizing:border-box;font-size:0;text-align:left">
    <div style='display:inline-block;font-size:15px;font-family:"Fira Code";color:gray;line-height:1.2;pointer-events:all;white-space:normal;overflow-wrap:normal'>
     this.state = state
     <br/>
     state.setContext(this)
    </div>
   </div>
  </div>
 </foreignObject>
 <path d="M270 230V124.47" fill="none" pointer-events="stroke" stroke="gray" stroke-miterlimit="10" stroke-width="2"/>
 <path d="m277 136.24-7-14-7 14" fill="none" pointer-events="all" stroke="gray" stroke-miterlimit="10" stroke-width="2"/>
 <path d="M330 250h135.53" fill="none" pointer-events="stroke" stroke="gray" stroke-dasharray="6 6" stroke-miterlimit="10" stroke-width="2"/>
 <path d="m453.76 257 14-7-14-7" fill="none" pointer-events="all" stroke="gray" stroke-miterlimit="10" stroke-width="2"/>
 <path d="M210 230h120v40H210z" fill="none" pointer-events="all" stroke="gray"/>
 <foreignObject height="100%" pointer-events="none" requiredFeatures="http://www.w3.org/TR/SVG11/feature#Extensibility" style="overflow:visible;text-align:left" width="100%">
  <div style="display:flex;align-items:unsafe center;justify-content:unsafe center;width:118px;height:1px;padding-top:250px;margin-left:211px" xmlns="http://www.w3.org/1999/xhtml">
   <div data-drawio-colors="color: rgb(0, 0, 0);" style="box-sizing:border-box;font-size:0;text-align:center">
    <div style="display:inline-block;font-size:12px;font-family:Helvetica;color:#000;line-height:1.2;pointer-events:all;white-space:normal;overflow-wrap:normal">
     <font color="gray" face="Fira Code">
      <span style="font-size:15px">
       Client
       <br/>
      </span>
     </font>
    </div>
   </div>
  </div>
 </foreignObject>
 <path d="M485.53 45h-59.56" fill="none" pointer-events="stroke" stroke="gray" stroke-miterlimit="10" stroke-width="2"/>
 <path d="m473.76 52 14-7-14-7M411.97 45l7-4.12 7 4.12-7 4.12Z" fill="none" pointer-events="all" stroke="gray" stroke-miterlimit="10" stroke-width="2"/>
 <path d="M490 0h160v60H490z" fill="none" pointer-events="all" stroke="gray"/>
 <foreignObject height="100%" pointer-events="none" requiredFeatures="http://www.w3.org/TR/SVG11/feature#Extensibility" style="overflow:visible;text-align:left" width="100%">
  <div style="display:flex;align-items:unsafe center;justify-content:unsafe center;width:158px;height:1px;padding-top:30px;margin-left:491px" xmlns="http://www.w3.org/1999/xhtml">
   <div data-drawio-colors="color: rgb(0, 0, 0);" style="box-sizing:border-box;font-size:0;text-align:center">
    <div style="display:inline-block;font-size:12px;font-family:Helvetica;color:#000;line-height:1.2;pointer-events:all;white-space:normal;overflow-wrap:normal">
     <font color="gray" face="Fira Code">
      <span style="font-size:15px">
       &lt;&lt;interface&gt;&gt;
       <br/>
       Strategy
       <br/>
      </span>
     </font>
    </div>
   </div>
  </div>
 </foreignObject>
 <path d="M270 300v-30" fill="none" pointer-events="stroke" stroke="gray" stroke-dasharray="6 6" stroke-miterlimit="10" stroke-width="2"/>
 <path d="M137.5 300h255l10 10v130h-265V300Z" fill="#333" pointer-events="all" stroke="gray" stroke-miterlimit="10"/>
 <path d="M392.5 300v10h10Z" fill-opacity=".05" pointer-events="all"/>
 <path d="M392.5 300v10h10" fill="none" pointer-events="all" stroke="gray" stroke-miterlimit="10"/>
 <foreignObject height="100%" pointer-events="none" requiredFeatures="http://www.w3.org/TR/SVG11/feature#Extensibility" style="overflow:visible;text-align:left" width="100%">
  <div style="display:flex;align-items:unsafe center;justify-content:unsafe flex-start;width:263px;height:1px;padding-top:370px;margin-left:140px" xmlns="http://www.w3.org/1999/xhtml">
   <div data-drawio-colors="color: #808080;" style="box-sizing:border-box;font-size:0;text-align:left">
    <div style='display:inline-block;font-size:15px;font-family:"Fira Code";color:gray;line-height:1.2;pointer-events:all;white-space:normal;overflow-wrap:normal'>
     str = new SomeStrategy()
     <br/>
     context.setStrategy(str)
     <br/>
     context.doSomething()
     <br/>
     // ...
     <br/>
     other = new OtherStrategy()
     <br/>
     context.setStrategy(other)
     <br/>
     context.doSomething()
    </div>
   </div>
  </div>
 </foreignObject>
 <path d="M570 145v-38.76" fill="none" pointer-events="stroke" stroke="gray" stroke-dasharray="6 6" stroke-miterlimit="10" stroke-width="2"/>
 <path d="m570 92.24 7 14h-14Z" fill="none" pointer-events="all" stroke="gray" stroke-miterlimit="10" stroke-width="2"/>
 <path d="M470 145h200v60H470z" fill="#333" pointer-events="all" stroke="gray"/>
 <foreignObject height="100%" pointer-events="none" requiredFeatures="http://www.w3.org/TR/SVG11/feature#Extensibility" style="overflow:visible;text-align:left" width="100%">
  <div style="display:flex;align-items:unsafe center;justify-content:unsafe center;width:198px;height:1px;padding-top:175px;margin-left:471px" xmlns="http://www.w3.org/1999/xhtml">
   <div data-drawio-colors="color: rgb(0, 0, 0);" style="box-sizing:border-box;font-size:0;text-align:center">
    <div style="display:inline-block;font-size:12px;font-family:Helvetica;color:#000;line-height:1.2;pointer-events:all;white-space:normal;overflow-wrap:normal">
     <font color="gray" face="Fira Code">
      <span style="font-size:15px">
       Concrete
       <br/>
       Strategies
       <br/>
      </span>
     </font>
    </div>
   </div>
  </div>
 </foreignObject>
 <path d="M470 205h200v30H470z" fill="#333" pointer-events="all" stroke="gray"/>
 <foreignObject height="100%" pointer-events="none" requiredFeatures="http://www.w3.org/TR/SVG11/feature#Extensibility" style="overflow:visible;text-align:left" width="100%">
  <div style="display:flex;align-items:unsafe center;justify-content:unsafe flex-start;width:198px;height:1px;padding-top:220px;margin-left:472px" xmlns="http://www.w3.org/1999/xhtml">
   <div data-drawio-colors="color: rgb(0, 0, 0);" style="box-sizing:border-box;font-size:0;text-align:left">
    <div style="display:inline-block;font-size:12px;font-family:Helvetica;color:#000;line-height:1.2;pointer-events:all;white-space:normal;overflow-wrap:normal">
     <div>
      <br/>
     </div>
    </div>
   </div>
  </div>
 </foreignObject>
 <path d="M490 60h160v30H490z" fill="none" pointer-events="all" stroke="gray"/>
 <foreignObject height="100%" pointer-events="none" requiredFeatures="http://www.w3.org/TR/SVG11/feature#Extensibility" style="overflow:visible;text-align:left" width="100%">
  <div style="display:flex;align-items:unsafe center;justify-content:unsafe flex-start;width:158px;height:1px;padding-top:75px;margin-left:492px" xmlns="http://www.w3.org/1999/xhtml">
   <div data-drawio-colors="color: rgb(0, 0, 0);" style="box-sizing:border-box;font-size:0;text-align:left">
    <div style="display:inline-block;font-size:12px;font-family:Helvetica;color:#000;line-height:1.2;pointer-events:all;white-space:normal;overflow-wrap:normal">
     <div>
      <font color="gray" face="Fira Code">
       <span style="font-size:15px">
        + execute(data)
       </span>
      </font>
     </div>
    </div>
   </div>
  </div>
 </foreignObject>
 <path d="M470 235h200v30H470z" fill="#333" pointer-events="all" stroke="gray"/>
 <foreignObject height="100%" pointer-events="none" requiredFeatures="http://www.w3.org/TR/SVG11/feature#Extensibility" style="overflow:visible;text-align:left" width="100%">
  <div style="display:flex;align-items:unsafe center;justify-content:unsafe flex-start;width:198px;height:1px;padding-top:250px;margin-left:472px" xmlns="http://www.w3.org/1999/xhtml">
   <div data-drawio-colors="color: rgb(0, 0, 0);" style="box-sizing:border-box;font-size:0;text-align:left">
    <div style="display:inline-block;font-size:12px;font-family:Helvetica;color:#000;line-height:1.2;pointer-events:all;white-space:normal;overflow-wrap:normal">
     <div>
      <font color="gray" face="Fira Code">
       <span style="font-size:15px">
        + execute(data)
       </span>
      </font>
     </div>
    </div>
   </div>
  </div>
 </foreignObject>
 <path d="M130 60h280v30H130z" fill="none" pointer-events="all" stroke="gray"/>
 <foreignObject height="100%" pointer-events="none" requiredFeatures="http://www.w3.org/TR/SVG11/feature#Extensibility" style="overflow:visible;text-align:left" width="100%">
  <div style="display:flex;align-items:unsafe center;justify-content:unsafe flex-start;width:278px;height:1px;padding-top:75px;margin-left:132px" xmlns="http://www.w3.org/1999/xhtml">
   <div data-drawio-colors="color: rgb(0, 0, 0);" style="box-sizing:border-box;font-size:0;text-align:left">
    <div style="display:inline-block;font-size:12px;font-family:Helvetica;color:#000;line-height:1.2;pointer-events:all;white-space:normal;overflow-wrap:normal">
     <div>
      <font color="gray" face="Fira Code">
       <span style="font-size:15px">
        + setStrategy(strategy)
       </span>
      </font>
     </div>
    </div>
   </div>
  </div>
 </foreignObject>
</svg>
